assets/icons/shuttle.svg

<svg xmlns="http://www.w3.org/2000/svg" viewBox="0 0 24 24">
  <path d="M12 4a2 2 0 0 1 2 2h-4a2 2 0 0 1 2-2Zm9 16a7.242 7.242 0 0 0-2.121-5.121L15 11V5a3 3 0 1 0-6 0v6l-3.879 3.879A7.242 7.242 0 0 0 3 20h6v2h6v-2h6Z"/>
</svg>

<svg xmlns="http://www.w3.org/2000/svg" viewBox="0 0 24 24">
  <path d="M12,4 C13.104,4 14,4.896 14,6 L10,6 C10,4.896 10.896,4 12,4 L12,4 Z M21,20 C21,18.079 20.237,16.237 18.879,14.879 L15,11 L15,5 C15,3.343 13.657,2 12,2 C10.343,2 9,3.343 9,5 L9,11 L5.121,14.879 C3.763,16.237 3,18.079 3,20 L9,20 L9,22 L15,22 L15,20 L21,20 Z"></path>
</svg>
